X:5791
T:Saturday Night
O:england
M:4/4
L:1/8
K:D
A2FG A2dc | BGBe dcBA | defd B2ef | gefd dcBA |\
A2FG A2dc | BGBe dcBA | defd Bgfe | dfec d4 ::\
dfed ecBA | dfge fdAF | GBeG FAdF | EFGA GFED |\
dfed ecBA | efge fedc | dfA=c Bgfe | ede^c d4:|


